X: 37
T:Pe oen labourad
T:An dro
S:from record
S:Dir Hir Tan: Celtic Songs From Brittany (Ariane Segal)
O:France, Brittany
F: http://www.youtube.com/watch?v=3RzF378eSJQ
L:1/8
M:2/4
Q:1/4=180
K:F
|:"F"z2 C2| FFFF       | F2 "C"G2   | "F"AAAG    | c2 c2|\
  FFFF    | F2  F2     | "C"GG"F"GF | F4         :|
|:"F"z2 F2| "Bb"BB"F"BA| "C"G2 "F"A2| "Bb"BB"F"AG| c2 c2|\
  FFFF    | F2 F2      | "C"GG"F"GF | F4         :|
